svgs/easer.svg

<svg xmlns="http://www.w3.org/2000/svg" viewBox="0 0 192 192"><path fill="none" stroke="#000" stroke-linecap="round" stroke-linejoin="round" stroke-width="8" d="M64.937 102.61a7.636 7.636 0 0 0-5.349 2.176 7.359 7.359 0 0 0-2.216 5.252c0 1.969.797 3.86 2.216 5.252a7.636 7.636 0 0 0 5.349 2.176 7.636 7.636 0 0 0 5.349-2.176 7.359 7.359 0 0 0 2.216-5.252c0-1.969-.797-3.86-2.216-5.252a7.636 7.636 0 0 0-5.349-2.176Zm0 38.677a7.663 7.663 0 0 0-4.459 1.41 7.437 7.437 0 0 0-2.758 3.718 7.296 7.296 0 0 0 0 4.6 7.43 7.43 0 0 0 2.758 3.717 7.657 7.657 0 0 0 4.459 1.411 7.657 7.657 0 0 0 4.459-1.411 7.43 7.43 0 0 0 2.758-3.717 7.296 7.296 0 0 0 0-4.6 7.437 7.437 0 0 0-2.758-3.718 7.663 7.663 0 0 0-4.459-1.41Zm11.615-19.32a7.642 7.642 0 0 0-5.349 2.176 7.363 7.363 0 0 0-2.216 5.252c0 1.969.798 3.86 2.216 5.252a7.637 7.637 0 0 0 5.349 2.176 7.64 7.64 0 0 0 5.35-2.176 7.362 7.362 0 0 0 2.215-5.252c0-1.969-.797-3.86-2.215-5.252a7.644 7.644 0 0 0-5.35-2.176Zm3.554 38.677a7.66 7.66 0 0 0-4.447 1.419 7.434 7.434 0 0 0-2.748 3.714 7.293 7.293 0 0 0 0 4.59 7.434 7.434 0 0 0 2.748 3.714 7.66 7.66 0 0 0 4.447 1.419 7.665 7.665 0 0 0 4.459-1.41 7.449 7.449 0 0 0 2.758-3.718 7.31 7.31 0 0 0 0-4.6 7.442 7.442 0 0 0-2.758-3.717 7.66 7.66 0 0 0-4.459-1.411Zm18.989-89.583c-8.062 0-37.482-5.477-37.482-30.687 0-25.209 21.511-23.858 36.488-23.858 14.978 0 36.527-1.388 36.527 23.858 0 25.247-29.42 30.687-37.482 30.687Z"/><path fill="none" stroke="#000" stroke-linecap="round" stroke-linejoin="round" stroke-width="8" d="M98.101 71.061c0 6.002 19.104 15.793 27.778 31.474 17.728 32-34.617 54.283-40.424 60.285m-13.029-15.193c9.514-1.951 39.048-20.97 50.09-50.269m-40.347 27.01a61.548 61.548 0 0 0 18.294-16.937 60.297 60.297 0 0 0 9.941-22.677m-38.857 21.645c9.514-1.951 23.574-12.342 26.745-35.338M85.149 30.433h25.943M85.149 56.205h25.943M134.628 41.8h-16.964m-39.087 0H61.613"/></svg>

<svg
    xmlns="http://www.w3.org/2000/svg"
    viewBox="0 0 192 192"
    id="vector">
    <path
        id="path"
        d="M 64.937 102.61 C 62.931 102.61 61.006 103.393 59.588 104.786 C 58.169 106.178 57.372 108.069 57.372 110.038 C 57.372 112.007 58.169 113.898 59.588 115.29 C 61.006 116.683 62.931 117.466 64.937 117.466 C 66.943 117.466 68.868 116.683 70.286 115.29 C 71.705 113.898 72.502 112.007 72.502 110.038 C 72.502 108.069 71.705 106.178 70.286 104.786 C 68.868 103.393 66.943 102.61 64.937 102.61 Z M 64.937 141.287 C 63.336 141.282 61.775 141.776 60.478 142.697 C 59.181 143.619 58.215 144.921 57.72 146.415 C 57.224 147.909 57.224 149.52 57.72 151.015 C 58.215 152.509 59.181 153.811 60.478 154.732 C 61.775 155.654 63.336 156.148 64.937 156.143 C 66.538 156.148 68.099 155.654 69.396 154.732 C 70.693 153.811 71.659 152.509 72.154 151.015 C 72.65 149.52 72.65 147.909 72.154 146.415 C 71.659 144.921 70.693 143.619 69.396 142.697 C 68.099 141.776 66.538 141.282 64.937 141.287 Z M 76.552 121.967 C 74.547 121.967 72.621 122.751 71.203 124.143 C 69.785 125.535 68.987 127.426 68.987 129.395 C 68.987 131.364 69.785 133.255 71.203 134.647 C 72.621 136.04 74.547 136.823 76.552 136.823 C 78.558 136.823 80.483 136.04 81.902 134.647 C 83.32 133.255 84.117 131.364 84.117 129.395 C 84.117 127.426 83.32 125.535 81.902 124.143 C 80.483 122.751 78.558 121.967 76.552 121.967 Z M 80.106 160.644 C 78.508 160.644 76.951 161.141 75.659 162.063 C 74.367 162.985 73.404 164.285 72.911 165.777 C 72.417 167.268 72.417 168.876 72.911 170.367 C 73.404 171.859 74.367 173.159 75.659 174.081 C 76.951 175.003 78.508 175.5 80.106 175.5 C 81.706 175.505 83.268 175.011 84.565 174.09 C 85.861 173.168 86.827 171.866 87.323 170.372 C 87.818 168.878 87.818 167.267 87.323 165.772 C 86.827 164.278 85.861 162.976 84.565 162.055 C 83.268 161.133 81.706 160.639 80.106 160.644 Z M 99.095 71.061 C 91.033 71.061 61.613 65.584 61.613 40.374 C 61.613 15.165 83.124 16.516 98.101 16.516 C 113.079 16.516 134.628 15.128 134.628 40.374 C 134.628 65.621 105.208 71.061 97.146 71.061 Z"
        fill="none"
        stroke="#000000"
        stroke-width="8"
        stroke-linecap="round"
        stroke-linejoin="round"/>
    <path
        id="path_1"
        d="M 98.101 71.061 C 98.101 77.063 117.205 86.854 125.879 102.535 C 143.607 134.535 91.262 156.818 85.455 162.82 M 72.426 147.627 C 81.94 145.676 111.474 126.657 122.516 97.358 M 82.169 124.368 C 89.381 120.009 95.607 114.244 100.463 107.431 C 105.32 100.618 108.703 92.9 110.404 84.754 M 71.547 106.399 C 81.061 104.448 95.121 94.057 98.292 71.061 M 85.149 30.433 L 111.092 30.433 M 85.149 56.205 L 111.092 56.205 M 134.628 41.8 L 117.664 41.8 M 78.577 41.8 L 61.613 41.8"
        fill="none"
        stroke="#000000"
        stroke-width="8"
        stroke-linecap="round"
        stroke-linejoin="round"/>
</svg>
